32x32/places/folder-green-mail.svg

<svg xmlns="http://www.w3.org/2000/svg" width="32" height="32" version="1"><rect style="opacity:.2" width="28" height="18" x="2" y="11" rx="1.4" ry="1.4"/><path style="fill:#00fae9" d="M2 22.6c0 .776.624 1.4 1.4 1.4h25.2c.776 0 1.4-.624 1.4-1.4V7.4c0-.776-.624-1.4-1.4-1.4H16c-2.1 0-2.8-3-4.9-3H3.4C2.624 3 2 3.624 2 4.4"/><rect style="opacity:.2" width="28" height="18" x="2" y="9" rx="1.4" ry="1.4"/><rect style="fill:#f4f4f7" width="24" height="11" x="4" y="8" rx="1.4" ry="1.4"/><rect style="fill:#87b158" width="28" height="18" x="2" y="10" rx="1.4" ry="1.4"/><path style="opacity:.1;fill:#f4f4f7" d="M3.4 3C2.625 3 2 3.625 2 4.4v1C2 4.625 2.625 4 3.4 4h7.7c2.1 0 2.8 3 4.9 3h12.6c.775 0 1.4.625 1.4 1.4v-1c0-.775-.625-1.4-1.4-1.4H16c-2.1 0-2.8-3-4.9-3z"/><path style="fill:#2f3e1f" d="M16 13a6 6 0 0 0 0 12h3.75s.703-.301.75-1.051c0-.75-.75-.949-.75-.949H16a3.915 3.915 0 0 1-.582-.047c-.7-.079-1.256-.299-1.676-.652l-.006-.004A4 4 0 1 1 20 19c0 .454-.092.745-.24 1.002L19.75 20h-.934c.112-.314.184-.648.184-1a3 3 0 1 0-3 3h3.75c.542-.05.923-.371 1.27-.576.762-.544.98-1.31.98-2.424a6 6 0 0 0-6-6zm0 5a1 1 0 1 1 0 2 1 1 0 0 1 0-2z"/></svg>

<svg xmlns="http://www.w3.org/2000/svg" width="32" height="32" version="1">
 <rect style="opacity:0.2" width="28" height="18" x="2" y="11" rx="1.4" ry="1.4"/>
 <path style="fill:#00fae9" d="M 2,22.6 C 2,23.376 2.6244,24 3.4,24 H 28.6 C 29.376,24 30,23.376 30,22.6 V 7.4 C 30,6.6244 29.376,6 28.6,6 H 16 C 13.9,6 13.2,3 11.1,3 H 3.4 C 2.6244,3 2,3.6244 2,4.4"/>
 <rect style="opacity:0.2" width="28" height="18" x="2" y="9" rx="1.4" ry="1.4"/>
 <rect style="fill:#f4f4f7" width="24" height="11" x="4" y="8" rx="1.4" ry="1.4"/>
 <rect style="fill:#87b158" width="28" height="18" x="2" y="10" rx="1.4" ry="1.4"/>
 <path style="opacity:0.1;fill:#f4f4f7" d="M 3.4004,3 C 2.6248,3 2,3.6248 2,4.4004 V 5.4004 C 2,4.6248 2.6248,4 3.4004,4 H 11.1 C 13.2,4 13.9,7 16,7 H 28.6 C 29.375,7 30,7.6248 30,8.4004 V 7.4004 C 30,6.6248 29.375,6 28.6,6 H 16 C 13.9,6 13.2,3 11.1,3 Z"/>
 <path style="fill:#2f3e1f" d="M 16,13 C 12.687,13 10,15.687 10,19 10,22.314 12.687,25 16,25 H 19.75 C 19.75,25 20.453,24.699 20.5,23.949 20.5,23.199 19.75,23 19.75,23 H 16 C 15.805,22.999 15.611,22.983 15.418,22.953 14.718,22.874 14.162,22.654 13.742,22.301 L 13.736,22.297 C 12.65,21.551 12,20.318 12,19 12,16.791 13.791,15 16,15 18.209,15 20,16.791 20,19 20,19.454 19.908,19.745 19.76,20.002 19.756,20.002 19.753,20 19.75,20 H 18.816 C 18.928,19.686 19,19.352 19,19 19,17.343 17.657,16 16,16 14.344,16 13,17.343 13,19 13,20.657 14.343,22 16,22 H 19.75 C 20.292,21.95 20.673,21.629 21.02,21.424 21.782,20.88 22,20.114 22,19 22,15.686 19.314,13 16,13 Z M 16,18 C 16.552,18 17,18.448 17,19 17,19.552 16.552,20 16,20 15.448,20 15,19.552 15,19 15,18.448 15.448,18 16,18 Z"/>
</svg>
